X:1
T:Title
%%score 1 { 2 | 3 }
L:1/8
Q:1/4=100
M:4/4
K:G
V:1 treble nm="Grand Piano, Soprano"
V:2 treble nm="Choir Pad, Bass"
V:3 bass 
V:1
 DG [GB]2 [GB]>[Gc] [GB]2 | [GB][GA] [EG]2 [EG][EA] [EG]2- | [EG][CE] [B,D]2 [DG][FA] [GB]2 | %3
w: By~Amanda~Motte,~1902 * * * * *|||
 [GB][Gd] [Gd]2 [Fc][GB] [FA]2 | D[DG] [GB]2 [GB]>[Gc] [GB]2 | [GB][GA] [EG]2 [EG][EA] [EG]2- | %6
w: |||
 [EG][CE] D2 [DG][FA][GB][GB]- | [GB][Gc] [GB]2 [GB][FA] G2- | GG [Ec]2 [Ec][Ec][Ec][Ge]- | %9
w: |||
 [Ge][Ge] [Ge]2 [Gd][G^c] [Gd]2- | [Gd][GB] [FA]2 [FA][GB] [Ac]2 | [GB][FA] [GB]2 [G^c][Gc] [Fd]2 | %12
w: |||
 DG [GB]2 [GB]>[Gc] [GB]2 | [GB][GA] [EG]2 [EG][EA] [EG]2- | [EG][CE] D2 [DG][FA][GB][GB]- | %15
w: |||
 [GB][Gc] [GB]2 [GB][FA] G2- | G6 z2 |] %17
w: ||
V:2
 B,2 D2 D>E D2 | DC C2 CC C2- | C[K:bass]G, G,2 G,G, G,2 | DD D2 DD D2 | B,B, D2 D>E D2 | %5
 DC C2 CC C2- | CG, B,2 DDDD- | DE D2 DC[K:bass] B,2- | B,B, C2 C[K:treble]CCC- | %9
 CC C2[K:bass] B,_B, =B,2- | B,D[K:treble] D2 DD D2 | DD D2[K:bass] A,A, A,2 | %12
 B,2 D2[K:treble] D>E D2 | DC C2 CC C2- | CG, B,2 DDDD- | DE D2 DC B,2- | B,6 z2 |] %17
V:3
 G,2 G,2 G,>G, G,2 | G,G, C,2 C,C, C,2- | C,C, G,,2 B,,D, z2 | G,B, B,2 A,G, D,2 | %4
 G,G, G,2 G,>G, G,2 | G,G, C,2 C,C, C,2- | C,C, G,,2 B,,D,G,G,- | G,C, D,2 D,D, [G,,G,]2- | %8
 [G,,G,]G, C,2 C,C,C,C,- | C,C, G,2 G,G, G,2- | G,G, D,2 D,D, D,2 | D,D, G,2 E,E, D,2 | %12
 G,2 G,2 G,>G, G,2 | G,G, C,2 C,C, C,2- | C,C, G,,2 B,,D,G,G,- | G,C, D,2 D,D, [G,,G,]2- | %16
 [G,,G,]6 z2 |] %17

